X:1931
T:Bourrée solognote
A:Sologne
O:France
M:3/8
L:1/8
Q:1/8=220
K:G
D|:G2F|G2 F/2G/2| ABG|A3|A2B|AGF|EFE|1DEF:|2D2|
|:d|BdB|AcA|G>FG/2A/2|BGd|BdB|AcA|G2F|G2:||


